resources/svg/alarm.svg

<svg width="15" height="15" viewBox="0 0 15 15" fill="none" xmlns="http://www.w3.org/2000/svg">
<path d="M3.85359 0.853591L0.853591 3.85359L0.146484 3.14648L3.14648 0.146484L3.85359 0.853591Z" fill="black"/>
<path d="M14.1465 3.85359L11.1465 0.853591L11.8536 0.146484L14.8536 3.14648L14.1465 3.85359Z" fill="black"/>
<path fill-rule="evenodd" clip-rule="evenodd" d="M1 8.50003C1 4.91018 3.91015 2.00003 7.5 2.00003C11.0899 2.00003 14 4.91018 14 8.50003C14 12.0899 11.0899 15 7.5 15C3.91015 15 1 12.0899 1 8.50003ZM8 8.00003V5.00003H7V9.00003H10V8.00003H8Z" fill="black"/>
</svg>

<svg viewBox="0 0 15 15" fill="none" xmlns="http://www.w3.org/2000/svg" fill="currentColor"><path d="M3.854.854l-3 3-.708-.708 3-3 .708.708zm10.292 3l-3-3 .708-.708 3 3-.707.708z" fill="currentColor"/><path fill-rule="evenodd" clip-rule="evenodd" d="M1 8.5a6.5 6.5 0 1113 0 6.5 6.5 0 01-13 0zM8 8V5H7v4h3V8H8z" fill="currentColor"/></svg>
